X:880
T:Larry Redican's No. 2
R:reel
M:4/4
Q:200
L:1/8
K:G
G2BG dGBG|A2cA eAcA|Ggfg edBG|A3 B AGEF|
G2BG dGBG|A2cA eAcA|Ggfg edBG|1 ADFA GDEF :|2 ADFA GABd||
e3 d e3 f|(3gfe fd edB^c|defd AdfA|d2fd Adfd|
e3 d e3 f|gefd edBA|GA (3Bcd gaba|1 gedB A2Bd :|2 gedB A2BA||
